X:1
T:Nyberg, 88.88.88
T:Nyberg, 88.88.88
T:Berndt Mikael Nyberg (1871-1940)
T:Public Domain Courtesy of the Cyber Hymnal™
C:Berndt Mikael Nyberg (1871-1940)
Z:Public Domain
Z:Courtesy of the Cyber Hymnal™
%%score ( 1 2 ) ( 3 4 )
L:1/8
Q:1/4=115
M:none
K:Ab
V:1 treble 
V:2 treble 
V:3 bass 
V:4 bass 
V:1
 C2 | [CF]2 [FA]2 [Gc]4 [=EB]2 | [FA]2 [FB]2 [Fc]4 [Fe]2 | [Fd]2 [Ec]2 [FB]4 (AB) | %4
 [=Ec]2 [EB]2 [FA]4 C2 | F2 [FA]2 [Gc]4 [FB]2 | [EA]2 [EB]2 [Ec]4 [Ee]2 | d2 [Ec]2 B4 ([CA][DB]) | %8
 [Ec]2 [EB]2 [EA]4 [EG]2 | [EA]2 [EB]2 [Ec]4 F2 | [FB]2 [Fc]2 [Fd]4 [Fc]2 | %11
 [FB]2 [Fd]2 [Fc]4 [GB]2 | [FA]2 [=EG]2 [CF]4 |] %13
V:2
 C2 | x10 | x10 | x8 F2 | x8 C2 | F2 x8 | x10 | (FE) x (F2 E2) x3 | x10 | x8 F2 | x10 | x10 | x8 |] %13
V:3
 C2 | [A,C]2 [F,C]2 [=E,C]4 [C,C]2 | [F,C]2 [D,D]2 [A,,C]4 [=A,,C]2 | %3
 [B,,B,]2 [C,=A,]2 [D,B,]4 [D,F,]2 | [C,G,]2 [C,C]2 [F,C]4 [C,C]2 | [A,C]2 [F,C]2 [E,C]4 [D,D]2 | %6
 [C,E]2 [E,G,]2 A,4 [D,A,]2 | (A,G,) [C,A,]2 ([D,A,]2 [E,G,]2) [F,A,]2 | %8
 [E,A,]2 (G,D) [A,C]4 [E,B,]2 | [C,A,]2 [E,G,]2 A,4 A,2 | [D,B,]2 [C,=A,]2 [B,,B,]4 [F,_A,]2 | %11
 [D,B,]2 [B,,B,]2 [A,,C]4 [B,,D]2 | [C,C]2 [C,B,]2 [F,A,]4 |] %13
V:4
 C2 | x10 | x10 | x10 | x10 | x10 | x4 A,4 x2 | B,,2 x8 | x2 E,2 x6 | x4 A,4 (F,E,) | x10 | x10 | %12
 x8 |] %13

